Newaita-dark/apps/16/com.github.danrabbit.nimbus.svg

<svg height="16" viewBox="0 0 16 16" width="16" xmlns="http://www.w3.org/2000/svg" xmlns:xlink="http://www.w3.org/1999/xlink"><linearGradient id="a"><stop offset="0" stop-opacity=".313726"/><stop offset=".222222" stop-opacity=".27451"/><stop offset="1" stop-opacity="0"/></linearGradient><radialGradient id="b" cx="450.908936" cy="189.579361" gradientTransform="matrix(.00000009 -.0390662 -.0703192 -.00000005 22.261576 31.797665)" gradientUnits="userSpaceOnUse" r="21.166656" xlink:href="#a"/><radialGradient id="c" cx="450.908936" cy="189.579361" gradientTransform="matrix(-.00000009 .0390662 .0703192 .00000005 -6.385059 -3.763741)" gradientUnits="userSpaceOnUse" r="21.166656" xlink:href="#a"/><radialGradient id="d" cx="450.908936" cy="189.579361" gradientTransform="matrix(-.00000009 -.0390662 .0703192 -.00000005 -6.385059 31.797665)" gradientUnits="userSpaceOnUse" r="21.166656" xlink:href="#a"/><radialGradient id="e" cx="450.908936" cy="189.579361" gradientTransform="matrix(.00000009 .0390662 -.0703192 .00000005 22.261575 -3.763741)" gradientUnits="userSpaceOnUse" r="21.166656" xlink:href="#a"/><linearGradient id="f" gradientTransform="matrix(.00668003 0 0 .031253 6.232693 6.719392)" gradientUnits="userSpaceOnUse" x1="255.323059" x2="255.323044" y1="233.5" y2="254.666656"><stop offset="0" stop-opacity=".27451"/><stop offset="1" stop-opacity="0"/></linearGradient><linearGradient id="g" gradientUnits="userSpaceOnUse" x1="7.938262" x2="7.938262" y1="1.44805249998" y2="14.0169675"><stop offset="0" stop-color="#64b5f6"/><stop offset="1" stop-color="#42a5f5"/></linearGradient><linearGradient id="h" gradientUnits="userSpaceOnUse" x1="7.9382592" x2="7.9382592" y1="14.01696600048" y2="1.44805535241"><stop offset="0" stop-color="#bdbdbd"/><stop offset="1" stop-color="#e0e0e0"/></linearGradient><path d="m9.097656 14.015625h1.320313v-.660156h-1.320313zm0 0" fill="url(#b)"/><path d="m6.78125 14.015625h-1.324219v.664063h1.324219zm0 0" fill="url(#c)"/><path d="m6.78125 14.015625h-1.324219v-.660156h1.324219zm0 0" fill="url(#d)"/><path d="m9.097656 14.015625h1.320313v.664063h-1.320313zm0 0" fill="url(#e)"/><path d="m6.78125 13.851562h2.316406v.828126h-2.316406zm0 0" fill="url(#f)"/><path d="m7.9375 1.449219c3.472656 0 6.285156 2.8125 6.285156 6.285156 0 3.46875-2.8125 6.28125-6.285156 6.28125-3.46875 0-6.285156-2.8125-6.285156-6.28125 0-3.472656 2.816406-6.285156 6.285156-6.285156zm0 0" fill="url(#g)"/><path d="m7.9375 14.015625c-3.480469 0-6.285156-2.800781-6.285156-6.28125 0-.023437 0-.042969 0-.0625.035156 3.453125 2.824218 6.222656 6.285156 6.222656s6.253906-2.769531 6.285156-6.222656v.0625c0 3.480469-2.804687 6.28125-6.285156 6.28125zm0 0" fill-opacity=".196078"/><path d="m7.9375 1.449219c-3.480469 0-6.285156 2.800781-6.285156 6.285156v.058594c.035156-3.453125 2.824218-6.222657 6.285156-6.222657s6.253906 2.769532 6.285156 6.222657c0-.019531 0-.039063 0-.058594 0-3.484375-2.804687-6.285156-6.285156-6.285156zm0 0" fill="#fff" fill-opacity=".392157"/><path d="m7.9375 1.402344c-3.507812 0-6.332031 2.824218-6.332031 6.332031 0 3.503906 2.824219 6.328125 6.332031 6.328125s6.332031-2.824219 6.332031-6.328125c0-3.507813-2.824219-6.332031-6.332031-6.332031zm0 .09375c3.457031 0 6.238281 2.78125 6.238281 6.238281 0 3.453125-2.78125 6.234375-6.238281 6.234375s-6.238281-2.78125-6.238281-6.234375c0-3.457031 2.78125-6.238281 6.238281-6.238281zm0 0" fill="#212121"/><path d="m8.765625 4.425781c-.882813 0-1.613281.621094-1.78125 1.449219-.160156-.082031-.34375-.128906-.535156-.128906-.640625 0-1.15625.519531-1.15625 1.160156 0 .082031.007812.164062.023437.242188-.589844.195312-1.015625.75-1.015625 1.410156 0 .824218.664063 1.488281 1.488281 1.488281h4.464844v-.007813c.746094-.082031 1.324219-.710937 1.324219-1.480468 0-.726563-.519531-1.328125-1.207031-1.460938.136718-.253906.214844-.542968.214844-.855468 0-1.007813-.8125-1.816407-1.820313-1.816407zm0 0" fill="url(#h)"/><path d="m8.765625 4.425781c-.882813 0-1.613281.621094-1.78125 1.449219-.160156-.082031-.34375-.128906-.535156-.128906-.640625 0-1.15625.519531-1.15625 1.160156 0 .035156 0 .066406.003906.101562.050781-.59375.546875-1.054687 1.152344-1.054687.191406 0 .375.046875.535156.128906.167969-.828125.898437-1.449219 1.78125-1.449219.972656 0 1.761719.753907 1.816406 1.714844 0-.035156.003907-.070312.003907-.105468 0-1.007813-.8125-1.816407-1.820313-1.816407zm1.734375 2.703125c-.035156.105469-.078125.203125-.128906.300782.03125.003906.058594.011718.089844.019531.011718-.039063.027343-.074219.039062-.113281.589844.167968 1.03125.691406 1.074219 1.324218 0-.03125.003906-.066406.003906-.101562 0-.679688-.457031-1.253906-1.078125-1.429688zm-5.207031.027344c-.578125.203125-.992188.753906-.992188 1.402344 0 .035156 0 .070312.003907.101562.039062-.605468.441406-1.109375.992187-1.300781-.003906.027344-.003906.054687-.003906.082031v.042969c.007812 0 .015625-.003906.023437-.007813-.015625-.078124-.023437-.15625-.023437-.238281 0-.023437 0-.042969 0-.0625 0-.007812 0-.015625 0-.019531zm0 0" fill="#fff"/><path d="m10.578125 6.414062c-.023437.246094-.09375.476563-.207031.683594.046875.007813.089844.019532.128906.03125.054688-.171875.085938-.355468.085938-.546875 0-.054687-.003907-.113281-.007813-.167969zm-5.273437.660157c-.003907.027343-.007813.054687-.007813.078125.007813 0 .011719-.003906.019531-.003906-.003906-.023438-.007812-.050782-.011718-.074219zm-.996094 1.65625c-.003906.054687-.007813.109375-.007813.167969 0 .824218.664063 1.488281 1.488281 1.488281h4.464844v-.007813c.746094-.082031 1.324219-.710937 1.324219-1.480468 0-.058594-.003906-.113282-.011719-.167969-.078125.6875-.621094 1.234375-1.3125 1.308593v.007813h-4.464844c-.769531 0-1.394531-.574219-1.480468-1.316406zm0 0" fill-opacity=".235294"/><path d="m1060.056306 535.224507c-106.761464 0-195.09949 75.110942-215.412512 175.258864-19.36823-9.920313-41.570835-15.589064-64.718232-15.589064-77.472921 0-139.829174 62.828649-139.829174 140.30157 0 9.920313.944792 19.840626 2.834375 29.288543-71.331775 23.619793-122.822923 90.700005-122.822923 170.534905 0 99.675526 80.307296 179.982822 179.982822 179.982822h539.948466v-.944792c90.227609-9.920313 160.142196-85.976046 160.142196-179.03803 0-87.865629-62.82865-160.614592-145.970321-176.676051 16.533855-30.70573 25.981773-65.663024 25.981773-103.454693 0-121.878131-98.258339-219.664074-220.13647-219.664074zm0 0" fill="none" stroke="#212121" stroke-linecap="round" stroke-linejoin="round" stroke-width="11.338583" transform="scale(.00826902)"/></svg>

<?xml version="1.0" encoding="UTF-8"?>
<svg xmlns="http://www.w3.org/2000/svg" xmlns:xlink="http://www.w3.org/1999/xlink" width="16px" height="16px" viewBox="0 0 16 16" version="1.1">
<defs>
<radialGradient id="radial0" gradientUnits="userSpaceOnUse" cx="450.908936" cy="189.579361" fx="450.908936" fy="189.579361" r="21.166656" gradientTransform="matrix(0.0000000870852,-0.0390662,-0.0703192,-0.0000000507693,22.261576,31.797665)">
<stop offset="0" style="stop-color:rgb(0%,0%,0%);stop-opacity:0.313726;"/>
<stop offset="0.222222" style="stop-color:rgb(0%,0%,0%);stop-opacity:0.27451;"/>
<stop offset="1" style="stop-color:rgb(0%,0%,0%);stop-opacity:0;"/>
</radialGradient>
<radialGradient id="radial1" gradientUnits="userSpaceOnUse" cx="450.908936" cy="189.579361" fx="450.908936" fy="189.579361" r="21.166656" gradientTransform="matrix(-0.0000000870852,0.0390662,0.0703192,0.0000000507693,-6.385059,-3.763741)">
<stop offset="0" style="stop-color:rgb(0%,0%,0%);stop-opacity:0.313726;"/>
<stop offset="0.222222" style="stop-color:rgb(0%,0%,0%);stop-opacity:0.27451;"/>
<stop offset="1" style="stop-color:rgb(0%,0%,0%);stop-opacity:0;"/>
</radialGradient>
<radialGradient id="radial2" gradientUnits="userSpaceOnUse" cx="450.908936" cy="189.579361" fx="450.908936" fy="189.579361" r="21.166656" gradientTransform="matrix(-0.0000000870852,-0.0390662,0.0703192,-0.0000000507693,-6.385059,31.797665)">
<stop offset="0" style="stop-color:rgb(0%,0%,0%);stop-opacity:0.313726;"/>
<stop offset="0.222222" style="stop-color:rgb(0%,0%,0%);stop-opacity:0.27451;"/>
<stop offset="1" style="stop-color:rgb(0%,0%,0%);stop-opacity:0;"/>
</radialGradient>
<radialGradient id="radial3" gradientUnits="userSpaceOnUse" cx="450.908936" cy="189.579361" fx="450.908936" fy="189.579361" r="21.166656" gradientTransform="matrix(0.0000000870852,0.0390662,-0.0703192,0.0000000507693,22.261575,-3.763741)">
<stop offset="0" style="stop-color:rgb(0%,0%,0%);stop-opacity:0.313726;"/>
<stop offset="0.222222" style="stop-color:rgb(0%,0%,0%);stop-opacity:0.27451;"/>
<stop offset="1" style="stop-color:rgb(0%,0%,0%);stop-opacity:0;"/>
</radialGradient>
<linearGradient id="linear0" gradientUnits="userSpaceOnUse" x1="255.323059" y1="233.5" x2="255.323044" y2="254.666656" gradientTransform="matrix(0.00668003,0,0,0.031253,6.232693,6.719392)">
<stop offset="0" style="stop-color:rgb(0%,0%,0%);stop-opacity:0.27451;"/>
<stop offset="1" style="stop-color:rgb(0%,0%,0%);stop-opacity:0;"/>
</linearGradient>
<linearGradient id="linear1" gradientUnits="userSpaceOnUse" x1="254" y1="-168.666672" x2="254" y2="233.5" gradientTransform="matrix(0.031253,0,0,0.031253,0,6.719392)">
<stop offset="0" style="stop-color:rgb(39.215687%,70.980394%,96.470588%);stop-opacity:1;"/>
<stop offset="1" style="stop-color:rgb(25.882354%,64.705884%,96.078432%);stop-opacity:1;"/>
</linearGradient>
<linearGradient id="linear2" gradientUnits="userSpaceOnUse" x1="960" y1="1695.118164" x2="960" y2="175.118134" gradientTransform="matrix(0.00826902,0,0,0.00826902,0,0)">
<stop offset="0" style="stop-color:rgb(74.117649%,74.117649%,74.117649%);stop-opacity:1;"/>
<stop offset="1" style="stop-color:rgb(87.843138%,87.843138%,87.843138%);stop-opacity:1;"/>
</linearGradient>
</defs>
<g id="surface1">
<path style=" stroke:none;fill-rule:nonzero;fill:url(#radial0);" d="M 9.097656 14.015625 L 10.417969 14.015625 L 10.417969 13.355469 L 9.097656 13.355469 Z M 9.097656 14.015625 "/>
<path style=" stroke:none;fill-rule:nonzero;fill:url(#radial1);" d="M 6.78125 14.015625 L 5.457031 14.015625 L 5.457031 14.679688 L 6.78125 14.679688 Z M 6.78125 14.015625 "/>
<path style=" stroke:none;fill-rule:nonzero;fill:url(#radial2);" d="M 6.78125 14.015625 L 5.457031 14.015625 L 5.457031 13.355469 L 6.78125 13.355469 Z M 6.78125 14.015625 "/>
<path style=" stroke:none;fill-rule:nonzero;fill:url(#radial3);" d="M 9.097656 14.015625 L 10.417969 14.015625 L 10.417969 14.679688 L 9.097656 14.679688 Z M 9.097656 14.015625 "/>
<path style=" stroke:none;fill-rule:nonzero;fill:url(#linear0);" d="M 6.78125 13.851562 L 9.097656 13.851562 L 9.097656 14.679688 L 6.78125 14.679688 Z M 6.78125 13.851562 "/>
<path style=" stroke:none;fill-rule:nonzero;fill:url(#linear1);" d="M 7.9375 1.449219 C 11.410156 1.449219 14.222656 4.261719 14.222656 7.734375 C 14.222656 11.203125 11.410156 14.015625 7.9375 14.015625 C 4.46875 14.015625 1.652344 11.203125 1.652344 7.734375 C 1.652344 4.261719 4.46875 1.449219 7.9375 1.449219 Z M 7.9375 1.449219 "/>
<path style=" stroke:none;fill-rule:nonzero;fill:rgb(0%,0%,0%);fill-opacity:0.196078;" d="M 7.9375 14.015625 C 4.457031 14.015625 1.652344 11.214844 1.652344 7.734375 C 1.652344 7.710938 1.652344 7.691406 1.652344 7.671875 C 1.6875 11.125 4.476562 13.894531 7.9375 13.894531 C 11.398438 13.894531 14.191406 11.125 14.222656 7.671875 C 14.222656 7.691406 14.222656 7.710938 14.222656 7.734375 C 14.222656 11.214844 11.417969 14.015625 7.9375 14.015625 Z M 7.9375 14.015625 "/>
<path style=" stroke:none;fill-rule:nonzero;fill:rgb(100%,100%,100%);fill-opacity:0.392157;" d="M 7.9375 1.449219 C 4.457031 1.449219 1.652344 4.25 1.652344 7.734375 C 1.652344 7.753906 1.652344 7.773438 1.652344 7.792969 C 1.6875 4.339844 4.476562 1.570312 7.9375 1.570312 C 11.398438 1.570312 14.191406 4.339844 14.222656 7.792969 C 14.222656 7.773438 14.222656 7.753906 14.222656 7.734375 C 14.222656 4.25 11.417969 1.449219 7.9375 1.449219 Z M 7.9375 1.449219 "/>
<path style=" stroke:none;fill-rule:nonzero;fill:rgb(12.941177%,12.941177%,12.941177%);fill-opacity:1;" d="M 7.9375 1.402344 C 4.429688 1.402344 1.605469 4.226562 1.605469 7.734375 C 1.605469 11.238281 4.429688 14.0625 7.9375 14.0625 C 11.445312 14.0625 14.269531 11.238281 14.269531 7.734375 C 14.269531 4.226562 11.445312 1.402344 7.9375 1.402344 Z M 7.9375 1.496094 C 11.394531 1.496094 14.175781 4.277344 14.175781 7.734375 C 14.175781 11.1875 11.394531 13.96875 7.9375 13.96875 C 4.480469 13.96875 1.699219 11.1875 1.699219 7.734375 C 1.699219 4.277344 4.480469 1.496094 7.9375 1.496094 Z M 7.9375 1.496094 "/>
<path style=" stroke:none;fill-rule:nonzero;fill:url(#linear2);" d="M 8.765625 4.425781 C 7.882812 4.425781 7.152344 5.046875 6.984375 5.875 C 6.824219 5.792969 6.640625 5.746094 6.449219 5.746094 C 5.808594 5.746094 5.292969 6.265625 5.292969 6.90625 C 5.292969 6.988281 5.300781 7.070312 5.316406 7.148438 C 4.726562 7.34375 4.300781 7.898438 4.300781 8.558594 C 4.300781 9.382812 4.964844 10.046875 5.789062 10.046875 L 10.253906 10.046875 L 10.253906 10.039062 C 11 9.957031 11.578125 9.328125 11.578125 8.558594 C 11.578125 7.832031 11.058594 7.230469 10.371094 7.097656 C 10.507812 6.84375 10.585938 6.554688 10.585938 6.242188 C 10.585938 5.234375 9.773438 4.425781 8.765625 4.425781 Z M 8.765625 4.425781 "/>
<path style=" stroke:none;fill-rule:nonzero;fill:rgb(100%,100%,100%);fill-opacity:1;" d="M 8.765625 4.425781 C 7.882812 4.425781 7.152344 5.046875 6.984375 5.875 C 6.824219 5.792969 6.640625 5.746094 6.449219 5.746094 C 5.808594 5.746094 5.292969 6.265625 5.292969 6.90625 C 5.292969 6.941406 5.292969 6.972656 5.296875 7.007812 C 5.347656 6.414062 5.84375 5.953125 6.449219 5.953125 C 6.640625 5.953125 6.824219 6 6.984375 6.082031 C 7.152344 5.253906 7.882812 4.632812 8.765625 4.632812 C 9.738281 4.632812 10.527344 5.386719 10.582031 6.347656 C 10.582031 6.3125 10.585938 6.277344 10.585938 6.242188 C 10.585938 5.234375 9.773438 4.425781 8.765625 4.425781 Z M 10.5 7.128906 C 10.464844 7.234375 10.421875 7.332031 10.371094 7.429688 C 10.402344 7.433594 10.429688 7.441406 10.460938 7.449219 C 10.472656 7.410156 10.488281 7.375 10.5 7.335938 C 11.089844 7.503906 11.53125 8.027344 11.574219 8.660156 C 11.574219 8.628906 11.578125 8.59375 11.578125 8.558594 C 11.578125 7.878906 11.121094 7.304688 10.5 7.128906 Z M 5.292969 7.15625 C 4.714844 7.359375 4.300781 7.910156 4.300781 8.558594 C 4.300781 8.59375 4.300781 8.628906 4.304688 8.660156 C 4.34375 8.054688 4.746094 7.550781 5.296875 7.359375 C 5.292969 7.386719 5.292969 7.414062 5.292969 7.441406 C 5.292969 7.457031 5.292969 7.472656 5.292969 7.484375 C 5.300781 7.484375 5.308594 7.480469 5.316406 7.476562 C 5.300781 7.398438 5.292969 7.320312 5.292969 7.238281 C 5.292969 7.214844 5.292969 7.195312 5.292969 7.175781 C 5.292969 7.167969 5.292969 7.160156 5.292969 7.15625 Z M 5.292969 7.15625 "/>
<path style=" stroke:none;fill-rule:nonzero;fill:rgb(0%,0%,0%);fill-opacity:0.235294;" d="M 10.578125 6.414062 C 10.554688 6.660156 10.484375 6.890625 10.371094 7.097656 C 10.417969 7.105469 10.460938 7.117188 10.5 7.128906 C 10.554688 6.957031 10.585938 6.773438 10.585938 6.582031 C 10.585938 6.527344 10.582031 6.46875 10.578125 6.414062 Z M 5.304688 7.074219 C 5.300781 7.101562 5.296875 7.128906 5.296875 7.152344 C 5.304688 7.152344 5.308594 7.148438 5.316406 7.148438 C 5.3125 7.125 5.308594 7.097656 5.304688 7.074219 Z M 4.308594 8.730469 C 4.304688 8.785156 4.300781 8.839844 4.300781 8.898438 C 4.300781 9.722656 4.964844 10.386719 5.789062 10.386719 L 10.253906 10.386719 L 10.253906 10.378906 C 11 10.296875 11.578125 9.667969 11.578125 8.898438 C 11.578125 8.839844 11.574219 8.785156 11.566406 8.730469 C 11.488281 9.417969 10.945312 9.964844 10.253906 10.039062 L 10.253906 10.046875 L 5.789062 10.046875 C 5.019531 10.046875 4.394531 9.472656 4.308594 8.730469 Z M 4.308594 8.730469 "/>
<path style="fill:none;stroke-width:11.338583;stroke-linecap:round;stroke-linejoin:round;stroke:rgb(12.941177%,12.941177%,12.941177%);stroke-opacity:1;stroke-miterlimit:4;" d="M 1060.056306 535.224507 C 953.294842 535.224507 864.956816 610.335449 844.643794 710.483371 C 825.275564 700.563058 803.072959 694.894307 779.925562 694.894307 C 702.452641 694.894307 640.096388 757.722956 640.096388 835.195877 C 640.096388 845.11619 641.04118 855.036503 642.930763 864.48442 C 571.598988 888.104213 520.10784 955.184425 520.10784 1035.019325 C 520.10784 1134.694851 600.415136 1215.002147 700.090662 1215.002147 L 1240.039128 1215.002147 L 1240.039128 1214.057355 C 1330.266737 1204.137042 1400.181324 1128.081309 1400.181324 1035.019325 C 1400.181324 947.153696 1337.352674 874.404733 1254.211003 858.343274 C 1270.744858 827.637544 1280.192776 792.68025 1280.192776 754.888581 C 1280.192776 633.01045 1181.934437 535.224507 1060.056306 535.224507 Z M 1060.056306 535.224507 " transform="matrix(0.00826902,0,0,0.00826902,0,0)"/>
</g>
</svg>
